!!!OTL: IN DER FINSTERN MITTERNACHT
!!!ARE: Europa, Mitteleuropa, Deutschland, Niederrhein (?)
!!!SCT: B0127
!!!YEM: Copyright 1995, estate of Helmut Schaffrath.
**kern
*ICvox
*Ivox
*M4/4
*k[b-]
*d:
=1
{4a
8a
8fn
4d
4g
=2
4fn
8d
8e
4d
4r}
=3
{4fn
8e
8fn
4g
4g
=4
4a
8d
8e
8fn
8e
4d
=5
2cn}
{4e
4g
=6
4a
8d
8e
4fn
4e
=7
2d
2r}
==
!!!AGN: Ballade, Romanze
!!!ONB: ESAC (Essen Associative Code) Database: BOEHME
!!!AMT: simple quadruple
!!!AIN: vox
!!!EED: Helmut Schaffrath
!!!EEV: 1.0
*-
